X: 3
T:The 12 Diatonic Pitch Sets (as key signatures)
M:7/4
L:1/4
K:Db
"^-5"A B c d e f g||\
K:Ab
"^-4"A B c d e f g||\
K:Eb
"^-3"A B c d e f g||
K:Bb
"^-2"A B c d e f g||\
K:F
"^-1"A B c d e f g||\
K:C
"^0 "A B c d e f g||
K:G
"^+1"A B c d e f g||\
K:D     
"^+2"A B c d e f g||\
K:A
"^+3"A B c d e f g||
K:E
"^+4"A B c d e f g||\
K:B
"^+5"A B c d e f g||\
K:F#
"^+6"A B c d e f g|]

The first one and last two are never used in Scottish music except by solo
singer/guitarists with capos.  Since the music is never written that way,
I won't use them in this document - all key signatures will range between
four flats and four sharps.

An important pitch set in Scottish music is that of the Highland bagpipe
chanter, which has nine notes using two sharps:

